icons/phone.svg

<svg width="24" height="24" viewBox="0 0 24 24" fill="none" xmlns="http://www.w3.org/2000/svg">
<path fill-rule="evenodd" clip-rule="evenodd" d="M5.11765 4C4.82123 4 4.53695 4.11775 4.32735 4.32735C4.12389 4.53081 4.00697 4.80464 4.0003 5.09164C4.24416 8.96517 5.89289 12.6172 8.63787 15.3621C11.3829 18.1071 15.0348 19.7558 18.9084 19.9997C19.1954 19.993 19.4692 19.8761 19.6726 19.6726C19.8822 19.4631 20 19.1788 20 18.8824V15.3241L16.1252 13.7742L14.9751 15.691C14.7074 16.1372 14.1421 16.3035 13.6753 16.0733C11.1787 14.842 9.15799 12.8213 7.92667 10.3247C7.69647 9.85791 7.86277 9.29262 8.30903 9.02486L10.2258 7.87479L8.67591 4H5.11765ZM2.91314 2.91314C3.49781 2.32847 4.2908 2 5.11765 2H9.35294C9.76185 2 10.1296 2.24895 10.2814 2.62861L12.3991 7.92273C12.5814 8.37844 12.406 8.89909 11.9851 9.15161L10.1618 10.2456C11.0518 11.7154 12.2846 12.9482 13.7544 13.8382L14.8484 12.0149C15.1009 11.594 15.6216 11.4186 16.0773 11.6009L21.3714 13.7186C21.751 13.8704 22 14.2382 22 14.6471V18.8824C22 19.7092 21.6715 20.5022 21.0869 21.0869C20.5022 21.6715 19.7092 22 18.8824 22C18.8621 22 18.8419 21.9994 18.8217 21.9982C14.4477 21.7323 10.3222 19.8749 7.22365 16.7763C4.12507 13.6778 2.26765 9.55229 2.00184 5.17831C2.00061 5.15811 2 5.13788 2 5.11765C2 4.2908 2.32847 3.49781 2.91314 2.91314Z" fill="black"/>
</svg>

<svg
  width="24"
  height="24"
  viewBox="0 0 24 24"
  xmlns="http://www.w3.org/2000/svg"
>
  <path
    fill-rule="evenodd"
    clip-rule="evenodd"
    d="M5.118 4A1.118 1.118 0 0 0 4 5.092 15.94 15.94 0 0 0 18.908 20 1.117 1.117 0 0 0 20 18.882v-3.558l-3.875-1.55-1.15 1.917a1 1 0 0 1-1.3.382 12.648 12.648 0 0 1-5.748-5.748 1 1 0 0 1 .382-1.3l1.917-1.15L8.676 4H5.118zM2.913 2.913A3.118 3.118 0 0 1 5.118 2h4.235a1 1 0 0 1 .928.629L12.4 7.923a1 1 0 0 1-.414 1.229l-1.823 1.094a10.648 10.648 0 0 0 3.592 3.592l1.094-1.823a1 1 0 0 1 1.23-.414l5.293 2.118a1 1 0 0 1 .629.928v4.235a3.118 3.118 0 0 1-3.178 3.116A17.942 17.942 0 0 1 2 5.118c0-.827.328-1.62.913-2.205z"
  />
</svg>
